X:1
T: Crackly Grass
R: reel
C: Rick Gagne
N: 1998 on whistle
M: 4/4
Q: 1/4=175
K: Edor
gfg | "Em"eBAB GBec | "D"dBAF GBAF | "C"EGBe gfed | "Bm"BcdB egfg |
"Am"eBAB GBec | "Bm"dBAF GBAF | "C"EGBG "D"AGFD |1 "Em"EGFD E :|\
[2 "Em"EGFD E2EB ||
"G"GFGA BG~G2 | "D"FAEA D2DA | FEFG AF~F2 | "Em"GBAF EBAB |
"G"G2GA BG~G2 | "D"FAEA D2DA | FEFG AF~F2 |1 "Em"GBAF eBAB :|\
[2 "Em"GBAF e ||
